_src/Frame.svg

<?xml version="1.0" encoding="UTF-8" standalone="no"?>
<!-- Created with Inkscape (http://www.inkscape.org/) -->

<svg
   xmlns:dc="http://purl.org/dc/elements/1.1/"
   xmlns:cc="http://creativecommons.org/ns#"
   xmlns:rdf="http://www.w3.org/1999/02/22-rdf-syntax-ns#"
   xmlns:svg="http://www.w3.org/2000/svg"
   xmlns="http://www.w3.org/2000/svg"
   xmlns:sodipodi="http://sodipodi.sourceforge.net/DTD/sodipodi-0.dtd"
   xmlns:inkscape="http://www.inkscape.org/namespaces/inkscape"
   width="96"
   height="32"
   viewBox="0 0 96 32.000001"
   id="svg6465"
   version="1.1"
   inkscape:version="0.91 r13725"
   inkscape:export-filename="C:\Apps\StepMania-dev\StepMania 5.1-master\stepmania-5_1_0\Themes\fiftyOne\BGAnimations\_frame files 3x1\rounded fill 3x1.png"
   inkscape:export-xdpi="90"
   inkscape:export-ydpi="90"
   sodipodi:docname="Frame.svg">
  <defs
     id="defs6467" />
  <sodipodi:namedview
     id="base"
     pagecolor="#ffffff"
     bordercolor="#666666"
     borderopacity="1.0"
     inkscape:pageopacity="0.0"
     inkscape:pageshadow="2"
     inkscape:zoom="5.6"
     inkscape:cx="48.891579"
     inkscape:cy="18.573979"
     inkscape:document-units="px"
     inkscape:current-layer="layer1"
     showgrid="false"
     units="px"
     inkscape:window-width="1680"
     inkscape:window-height="987"
     inkscape:window-x="-8"
     inkscape:window-y="-8"
     inkscape:window-maximized="1" />
  <metadata
     id="metadata6470">
    <rdf:RDF>
      <cc:Work
         rdf:about="">
        <dc:format>image/svg+xml</dc:format>
        <dc:type
           rdf:resource="http://purl.org/dc/dcmitype/StillImage" />
        <dc:title></dc:title>
      </cc:Work>
    </rdf:RDF>
  </metadata>
  <g
     inkscape:label="Layer 1"
     inkscape:groupmode="layer"
     id="layer1"
     transform="translate(0,-1020.3622)">
    <path
       style="color:#000000;clip-rule:nonzero;display:inline;overflow:visible;visibility:visible;opacity:1;isolation:auto;mix-blend-mode:normal;color-interpolation:sRGB;color-interpolation-filters:linearRGB;solid-color:#000000;solid-opacity:1;fill:#707070;fill-opacity:0.875;fill-rule:evenodd;stroke:none;stroke-width:0.60000002;stroke-linecap:butt;stroke-linejoin:miter;stroke-miterlimit:4;stroke-dasharray:none;stroke-dashoffset:0;stroke-opacity:1;marker:none;color-rendering:auto;image-rendering:auto;shape-rendering:auto;text-rendering:auto;enable-background:accumulate"
       d="m 1.7073596,1036.362 14.8921114,14.8923 2.872449,0 c 15.011335,6e-4 44.219709,2e-4 57.05617,0 l 2.872312,0 14.892238,-14.8923 -14.897534,-14.8922 -2.867016,0 -57.05617,0 -2.867152,0 0,0 0,0 -14.8921159,14.8922 z"
       id="rect4138-5-7-5"
       inkscape:connector-curvature="0"
       sodipodi:nodetypes="cccccccccccccc" />
  </g>
</svg>

<?xml version="1.0" encoding="UTF-8" standalone="no"?>
<!DOCTYPE svg PUBLIC "-//W3C//DTD SVG 1.1//EN" "http://www.w3.org/Graphics/SVG/1.1/DTD/svg11.dtd">
<svg width="100%" height="100%" viewBox="0 0 96 32" version="1.1" xmlns="http://www.w3.org/2000/svg" xmlns:xlink="http://www.w3.org/1999/xlink" xml:space="preserve" xmlns:serif="http://www.serif.com/" style="fill-rule:evenodd;clip-rule:evenodd;stroke-linejoin:round;stroke-miterlimit:1.41421;">
    <g id="rect4138-5-7-5" transform="matrix(1,0,0,1,0,-1020.36)">
        <path d="M1.707,1036.36L16.599,1051.25L19.472,1051.25C34.483,1051.26 63.692,1051.26 76.528,1051.25L79.4,1051.25L94.293,1036.36L79.395,1021.47L76.528,1021.47L19.472,1021.47L16.605,1021.47L1.713,1036.36L1.707,1036.36Z" style="fill:white;fill-opacity:0.87451;stroke:rgb(53,53,53);stroke-width:0.64px;"/>
    </g>
</svg>
